source/img/iconArrowButton.svg

<svg width="20" height="20" viewBox="0 0 20 20" fill="none" xmlns="http://www.w3.org/2000/svg">
<path d="M2.92992 2.92944C6.83584 -0.976478 13.1651 -0.976479 17.071 2.92944C20.977 6.83535 20.977 13.1646 17.0711 17.0706C13.1651 20.9765 6.83584 20.9765 2.92993 17.0706C-0.97599 13.1646 -0.975991 6.83535 2.92992 2.92944ZM6.20006 7.84747L10.4167 7.75909L5.21075 12.9651C4.83156 13.3443 4.83157 13.9544 5.21075 14.3336L5.66692 14.7897C6.04611 15.1689 6.65623 15.1689 7.03541 14.7897L12.2414 9.58375L12.153 13.8004C12.1416 14.3421 12.5778 14.7897 13.1195 14.7897L13.7439 14.7869C14.2799 14.7869 14.7132 14.3535 14.7104 13.8204L14.7132 6.25659C14.7132 5.7206 14.2799 5.28724 13.7467 5.29009L6.17725 5.28724C5.64126 5.28724 5.2079 5.7206 5.21075 6.25374L5.2079 6.87812C5.21075 7.42267 5.65836 7.85887 6.20006 7.84747Z" fill="#333333"/>
</svg>

<svg width="20" height="20" fill="none" xmlns="http://www.w3.org/2000/svg"><path d="M2.93 2.93a9.998 9.998 0 0 1 14.141 0 9.998 9.998 0 0 1 0 14.14 9.998 9.998 0 0 1-14.141 0 9.998 9.998 0 0 1 0-14.14ZM6.2 7.846l4.217-.088-5.206 5.206c-.38.38-.38.99 0 1.369l.456.456c.38.379.99.379 1.368 0l5.206-5.206-.088 4.216a.969.969 0 0 0 .966.99l.625-.003c.536 0 .97-.434.966-.967l.003-7.563a.964.964 0 0 0-.966-.967l-7.57-.003a.964.964 0 0 0-.966.967l-.003.624c.003.545.45.98.992.97Z" fill="#333"/></svg>
